svgs/thin/soap.svg

<svg xmlns="http://www.w3.org/2000/svg" viewBox="0 0 512 512"><!-- Font Awesome Pro 6.0.0-alpha2 by @fontawesome - https://fontawesome.com License - https://fontawesome.com/license (Commercial License) --><path d="M408 192C403.578 192 400 195.594 400 200S403.578 208 408 208C456.531 208 496 247.469 496 296V408C496 456.531 456.531 496 408 496H104C55.469 496 16 456.531 16 408V296C16 247.469 55.469 208 104 208H224C228.422 208 232 204.406 232 200S228.422 192 224 192H104C46.656 192 0 238.656 0 296V408C0 465.344 46.656 512 104 512H408C465.344 512 512 465.344 512 408V296C512 238.656 465.344 192 408 192ZM160 272C115.891 272 80 307.875 80 352S115.891 432 160 432H352C396.109 432 432 396.125 432 352S396.109 272 352 272H160ZM416 352C416 387.281 387.297 416 352 416H160C124.703 416 96 387.281 96 352S124.703 288 160 288H352C387.297 288 416 316.719 416 352ZM320 240C355.346 240 384 211.346 384 176S355.346 112 320 112S256 140.654 256 176S284.654 240 320 240ZM320 128C346.467 128 368 149.533 368 176S346.467 224 320 224S272 202.467 272 176S293.533 128 320 128ZM208 96C234.51 96 256 74.51 256 48S234.51 0 208 0S160 21.49 160 48S181.49 96 208 96ZM208 16C225.645 16 240 30.355 240 48S225.645 80 208 80S176 65.645 176 48S190.355 16 208 16ZM384 64C401.674 64 416 49.674 416 32S401.674 0 384 0S352 14.326 352 32S366.326 64 384 64ZM384 16C392.822 16 400 23.178 400 32S392.822 48 384 48S368 40.822 368 32S375.178 16 384 16Z"/></svg>

<svg xmlns="http://www.w3.org/2000/svg" viewBox="0 0 512 512"><!--! Font Awesome Pro 6.3.0 by @fontawesome - https://fontawesome.com License - https://fontawesome.com/license (Commercial License) Copyright 2023 Fonticons, Inc. --><path d="M408 192c-4.422 0-8 3.594-8 8s3.578 8 8 8c48.53 0 88 39.47 88 88v112c0 48.53-39.47 88-88 88h-304c-48.53 0-88-39.47-88-88v-112c0-48.53 39.47-88 88-88H224c4.422 0 8-3.594 8-8S228.4 192 224 192H104C46.66 192 0 238.7 0 296v112C0 465.3 46.66 512 104 512h304c57.34 0 104-46.66 104-104v-112C512 238.7 465.3 192 408 192zM160 272c-44.11 0-80 35.88-80 80s35.89 80 80 80h192c44.11 0 80-35.88 80-80S396.1 272 352 272H160zM416 352c0 35.28-28.7 64-64 64H160c-35.3 0-64-28.72-64-64s28.7-64 64-64h192C387.3 288 416 316.7 416 352zM320 240c35.35 0 64-28.65 64-64s-28.65-64-64-64s-64 28.65-64 64S284.7 240 320 240zM320 128c26.47 0 48 21.53 48 48S346.5 224 320 224s-48-21.53-48-48S293.5 128 320 128zM208 96C234.5 96 256 74.51 256 48S234.5 0 208 0S160 21.49 160 48S181.5 96 208 96zM208 16c17.64 0 32 14.36 32 32s-14.36 32-32 32s-32-14.36-32-32S190.4 16 208 16zM384 64c17.67 0 32-14.33 32-32s-14.33-32-32-32s-32 14.33-32 32S366.3 64 384 64zM384 16c8.822 0 16 7.178 16 16S392.8 48 384 48S368 40.82 368 32S375.2 16 384 16z"/></svg>
